docs/icons/menu.svg

<?xml version="1.0" standalone="no"?><!DOCTYPE svg PUBLIC "-//W3C//DTD SVG 1.1//EN" "http://www.w3.org/Graphics/SVG/1.1/DTD/svg11.dtd"><svg t="1630579931388" class="icon" viewBox="0 0 1024 1024" version="1.1" xmlns="http://www.w3.org/2000/svg" p-id="5012" xmlns:xlink="http://www.w3.org/1999/xlink" width="20" height="20"><defs><style type="text/css"></style></defs><path d="M128 213.34016l768 0q17.67424 0 30.16704 12.4928t12.4928 30.16704-12.4928 30.16704-30.16704 12.4928l-768 0q-17.67424 0-30.16704-12.4928t-12.4928-30.16704 12.4928-30.16704 30.16704-12.4928zM128 725.34016l768 0q17.67424 0 30.16704 12.4928t12.4928 30.16704-12.4928 30.16704-30.16704 12.4928l-768 0q-17.67424 0-30.16704-12.4928t-12.4928-30.16704 12.4928-30.16704 30.16704-12.4928zM128 469.34016l768 0q17.67424 0 30.16704 12.4928t12.4928 30.16704-12.4928 30.16704-30.16704 12.4928l-768 0q-17.67424 0-30.16704-12.4928t-12.4928-30.16704 12.4928-30.16704 30.16704-12.4928z" p-id="5013" fill="#e6e6e6"></path></svg>

<svg viewBox="0 0 1024 1024" xmlns="http://www.w3.org/2000/svg"><defs><style/></defs><path d="M128 213.34h768q17.674 0 30.167 12.493T938.66 256t-12.493 30.167T896 298.66H128q-17.674 0-30.167-12.493T85.34 256t12.493-30.167T128 213.34zm0 512h768q17.674 0 30.167 12.493T938.66 768t-12.493 30.167T896 810.66H128q-17.674 0-30.167-12.493T85.34 768t12.493-30.167T128 725.34zm0-256h768q17.674 0 30.167 12.493T938.66 512t-12.493 30.167T896 554.66H128q-17.674 0-30.167-12.493T85.34 512t12.493-30.167T128 469.34z"/></svg>
